Newaita-dark/apps/scalable/wireshark.svg

<?xml version="1.0" encoding="UTF-8"?>
<svg xmlns="http://www.w3.org/2000/svg" xmlns:xlink="http://www.w3.org/1999/xlink" width="512pt" height="512pt" viewBox="0 0 512 512" version="1.1">
<defs>
<linearGradient id="linear0" gradientUnits="userSpaceOnUse" x1="254" y1="233.5" x2="254" y2="254.666672" gradientTransform="matrix(1.000095,0,0,1.000095,-0.000061041,215.020562)">
<stop offset="0" style="stop-color:rgb(0%,0%,0%);stop-opacity:0.27451;"/>
<stop offset="1" style="stop-color:rgb(0%,0%,0%);stop-opacity:0;"/>
</linearGradient>
<radialGradient id="radial0" gradientUnits="userSpaceOnUse" cx="450.908936" cy="189.579361" fx="450.908936" fy="189.579361" r="21.166656" gradientTransform="matrix(0.00000278673,-1.250119,-2.250215,-0.00000162462,849.966879,1017.525321)">
<stop offset="0" style="stop-color:rgb(0%,0%,0%);stop-opacity:0.313725;"/>
<stop offset="0.222222" style="stop-color:rgb(0%,0%,0%);stop-opacity:0.27451;"/>
<stop offset="1" style="stop-color:rgb(0%,0%,0%);stop-opacity:0;"/>
</radialGradient>
<radialGradient id="radial1" gradientUnits="userSpaceOnUse" cx="450.908936" cy="189.579361" fx="450.908936" fy="189.579361" r="21.166656" gradientTransform="matrix(-0.00000278673,1.250119,2.250215,0.00000162462,-339.272325,-120.439662)">
<stop offset="0" style="stop-color:rgb(0%,0%,0%);stop-opacity:0.313725;"/>
<stop offset="0.222222" style="stop-color:rgb(0%,0%,0%);stop-opacity:0.27451;"/>
<stop offset="1" style="stop-color:rgb(0%,0%,0%);stop-opacity:0;"/>
</radialGradient>
<radialGradient id="radial2" gradientUnits="userSpaceOnUse" cx="450.908936" cy="189.579361" fx="450.908936" fy="189.579361" r="21.166656" gradientTransform="matrix(-0.00000278673,-1.250119,2.250215,-0.00000162462,-339.272325,1017.525321)">
<stop offset="0" style="stop-color:rgb(0%,0%,0%);stop-opacity:0.313725;"/>
<stop offset="0.222222" style="stop-color:rgb(0%,0%,0%);stop-opacity:0.27451;"/>
<stop offset="1" style="stop-color:rgb(0%,0%,0%);stop-opacity:0;"/>
</radialGradient>
<radialGradient id="radial3" gradientUnits="userSpaceOnUse" cx="450.908936" cy="189.579361" fx="450.908936" fy="189.579361" r="21.166656" gradientTransform="matrix(0.00000278673,1.250119,-2.250215,0.00000162462,849.966856,-120.43967)">
<stop offset="0" style="stop-color:rgb(0%,0%,0%);stop-opacity:0.313725;"/>
<stop offset="0.222222" style="stop-color:rgb(0%,0%,0%);stop-opacity:0.27451;"/>
<stop offset="1" style="stop-color:rgb(0%,0%,0%);stop-opacity:0;"/>
</radialGradient>
<linearGradient id="linear1" gradientUnits="userSpaceOnUse" x1="254" y1="233.5" x2="254" y2="-168.666672" gradientTransform="matrix(1.000095,0,0,1.000095,0,215.020531)">
<stop offset="0" style="stop-color:rgb(25.882353%,64.705882%,96.078431%);stop-opacity:1;"/>
<stop offset="1" style="stop-color:rgb(39.215686%,70.980392%,96.470588%);stop-opacity:1;"/>
</linearGradient>
<linearGradient id="linear2" gradientUnits="userSpaceOnUse" x1="960" y1="1095.118164" x2="960" y2="175.118118" gradientTransform="matrix(0.264609,0,0,0.264609,0,0)">
<stop offset="0" style="stop-color:rgb(56.470588%,79.215686%,97.647059%);stop-opacity:1;"/>
<stop offset="1" style="stop-color:rgb(73.333333%,87.058824%,98.431373%);stop-opacity:1;"/>
</linearGradient>
<linearGradient id="linear3" gradientUnits="userSpaceOnUse" x1="296.333344" y1="117.083344" x2="296.333344" y2="-62.833324" gradientTransform="matrix(3.779528,0,0,3.779528,0,812.598389)">
<stop offset="0" style="stop-color:rgb(38.039216%,38.039216%,38.039216%);stop-opacity:1;"/>
<stop offset="1" style="stop-color:rgb(25.882353%,25.882353%,25.882353%);stop-opacity:1;"/>
</linearGradient>
</defs>
<g id="surface1">
<path style=" stroke:none;fill-rule:nonzero;fill:url(#linear0);" d="M 82.027344 448.542969 L 428.664062 448.542969 L 428.664062 469.710938 L 82.027344 469.710938 Z M 82.027344 448.542969 "/>
<path style=" stroke:none;fill-rule:nonzero;fill:url(#radial0);" d="M 428.664062 448.542969 L 471.003906 448.542969 L 471.003906 427.375 L 428.664062 427.375 Z M 428.664062 448.542969 "/>
<path style=" stroke:none;fill-rule:nonzero;fill:url(#radial1);" d="M 82.027344 448.542969 L 39.691406 448.542969 L 39.691406 469.710938 L 82.027344 469.710938 Z M 82.027344 448.542969 "/>
<path style=" stroke:none;fill-rule:nonzero;fill:url(#radial2);" d="M 82.027344 448.542969 L 39.691406 448.542969 L 39.691406 427.375 L 82.027344 427.375 Z M 82.027344 448.542969 "/>
<path style=" stroke:none;fill-rule:nonzero;fill:url(#radial3);" d="M 428.664062 448.542969 L 471.003906 448.542969 L 471.003906 469.710938 L 428.664062 469.710938 Z M 428.664062 448.542969 "/>
<path style=" stroke:none;fill-rule:nonzero;fill:url(#linear1);" d="M 58.214844 46.335938 L 449.835938 46.335938 C 458.601562 46.335938 465.710938 53.445312 465.710938 62.214844 L 465.710938 432.667969 C 465.710938 441.433594 458.601562 448.542969 449.835938 448.542969 L 58.214844 448.542969 C 49.445312 448.542969 42.335938 441.433594 42.335938 432.667969 L 42.335938 62.214844 C 42.335938 53.445312 49.445312 46.335938 58.214844 46.335938 Z M 58.214844 46.335938 "/>
<path style=" stroke:none;fill-rule:nonzero;fill:url(#linear2);" d="M 58.214844 46.335938 C 49.417969 46.335938 42.335938 53.417969 42.335938 62.214844 L 42.335938 300.363281 L 465.710938 300.363281 L 465.710938 62.214844 C 465.710938 53.417969 458.628906 46.335938 449.835938 46.335938 Z M 58.214844 46.335938 "/>
<path style="fill-rule:nonzero;fill:url(#linear3);stroke-width:11.338583;stroke-linecap:round;stroke-linejoin:miter;stroke:rgb(12.941177%,12.941177%,12.941177%);stroke-opacity:1;stroke-miterlimit:4;" d="M 1320.006889 575.112433 C 1054.077546 575.112433 600.001789 807.044037 600.001789 1095.116936 L 159.994572 1095.116936 L 159.994572 1255.111508 L 1759.999344 1255.111508 L 1759.999344 1095.116936 L 1257.384913 1095.116936 C 1222.161897 922.190527 1205.332794 781.519898 1320.006889 575.112433 Z M 1320.006889 575.112433 " transform="matrix(0.264609,0,0,0.264609,0,0)"/>
<path style=" stroke:none;fill-rule:nonzero;fill:rgb(100%,100%,100%);fill-opacity:0.392157;" d="M 58.214844 46.335938 C 49.417969 46.335938 42.335938 53.417969 42.335938 62.214844 L 42.335938 64.859375 C 42.335938 56.066406 49.417969 48.984375 58.214844 48.984375 L 449.835938 48.984375 C 458.628906 48.984375 465.710938 56.066406 465.710938 64.859375 L 465.710938 62.214844 C 465.710938 53.417969 458.628906 46.335938 449.835938 46.335938 Z M 58.214844 46.335938 "/>
<path style=" stroke:none;fill-rule:nonzero;fill:rgb(1.176471%,1.176471%,1.176471%);fill-opacity:0.235294;" d="M 58.214844 448.539062 C 49.417969 448.539062 42.335938 441.457031 42.335938 432.664062 L 42.335938 430.015625 C 42.335938 438.8125 49.417969 445.894531 58.214844 445.894531 L 449.835938 445.894531 C 458.628906 445.894531 465.710938 438.8125 465.710938 430.015625 L 465.710938 432.664062 C 465.710938 441.457031 458.628906 448.539062 449.835938 448.539062 Z M 58.214844 448.539062 "/>
<path style=" stroke:none;fill-rule:nonzero;fill:rgb(12.941177%,12.941177%,12.941177%);fill-opacity:1;" d="M 58.214844 44.839844 C 48.613281 44.839844 40.835938 52.613281 40.835938 62.214844 L 40.835938 432.667969 C 40.835938 442.265625 48.613281 450.042969 58.214844 450.042969 L 449.832031 450.042969 C 459.433594 450.042969 467.210938 442.265625 467.210938 432.667969 L 467.210938 62.214844 C 467.210938 52.613281 459.433594 44.839844 449.832031 44.839844 Z M 58.214844 47.839844 L 449.832031 47.839844 C 457.824219 47.839844 464.210938 54.222656 464.210938 62.214844 L 464.210938 432.667969 C 464.210938 440.65625 457.824219 447.042969 449.832031 447.042969 L 58.214844 447.042969 C 50.222656 447.042969 43.839844 440.65625 43.839844 432.667969 L 43.839844 62.214844 C 43.839844 54.222656 50.222656 47.839844 58.214844 47.839844 Z M 58.214844 47.839844 "/>
</g>
</svg>

<svg xmlns="http://www.w3.org/2000/svg" width="512pt" height="512pt" viewBox="0 0 512 512"><defs><linearGradient id="a" gradientUnits="userSpaceOnUse" x1="254" y1="233.5" x2="254" y2="254.667" gradientTransform="matrix(1.0001 0 0 1.0001 0 215.02)"><stop offset="0" stop-opacity=".275"/><stop offset="1" stop-opacity="0"/></linearGradient><radialGradient id="b" gradientUnits="userSpaceOnUse" cx="450.909" cy="189.579" fx="450.909" fy="189.579" r="21.167" gradientTransform="matrix(0 -1.25012 -2.25021 0 849.967 1017.525)"><stop offset="0" stop-opacity=".314"/><stop offset=".222" stop-opacity=".275"/><stop offset="1" stop-opacity="0"/></radialGradient><radialGradient id="c" gradientUnits="userSpaceOnUse" cx="450.909" cy="189.579" fx="450.909" fy="189.579" r="21.167" gradientTransform="matrix(0 1.25012 2.25021 0 -339.272 -120.44)"><stop offset="0" stop-opacity=".314"/><stop offset=".222" stop-opacity=".275"/><stop offset="1" stop-opacity="0"/></radialGradient><radialGradient id="d" gradientUnits="userSpaceOnUse" cx="450.909" cy="189.579" fx="450.909" fy="189.579" r="21.167" gradientTransform="matrix(0 -1.25012 2.25021 0 -339.272 1017.525)"><stop offset="0" stop-opacity=".314"/><stop offset=".222" stop-opacity=".275"/><stop offset="1" stop-opacity="0"/></radialGradient><radialGradient id="e" gradientUnits="userSpaceOnUse" cx="450.909" cy="189.579" fx="450.909" fy="189.579" r="21.167" gradientTransform="matrix(0 1.25012 -2.25021 0 849.967 -120.44)"><stop offset="0" stop-opacity=".314"/><stop offset=".222" stop-opacity=".275"/><stop offset="1" stop-opacity="0"/></radialGradient><linearGradient id="f" gradientUnits="userSpaceOnUse" x1="254" y1="233.5" x2="254" y2="-168.667" gradientTransform="matrix(1.0001 0 0 1.0001 0 215.02)"><stop offset="0" stop-color="#42a5f5"/><stop offset="1" stop-color="#64b5f6"/></linearGradient><linearGradient id="g" gradientUnits="userSpaceOnUse" x1="960" y1="1095.118" x2="960" y2="175.118" gradientTransform="rotate(.158) scale(.26461)"><stop offset="0" stop-color="#90caf9"/><stop offset="1" stop-color="#bbdefb"/></linearGradient><linearGradient id="h" gradientUnits="userSpaceOnUse" x1="296.333" y1="117.083" x2="296.333" y2="-62.833" gradientTransform="matrix(3.77953 0 0 3.77953 0 812.598)"><stop offset="0" stop-color="#616161"/><stop offset="1" stop-color="#424242"/></linearGradient></defs><path d="M82.027 448.543h346.637v21.168H82.027zm0 0" fill="url(#a)"/><path d="M428.664 448.543h42.34v-21.168h-42.34zm0 0" fill="url(#b)"/><path d="M82.027 448.543H39.691v21.168h42.336zm0 0" fill="url(#c)"/><path d="M82.027 448.543H39.691v-21.168h42.336zm0 0" fill="url(#d)"/><path d="M428.664 448.543h42.34v21.168h-42.34zm0 0" fill="url(#e)"/><path d="M58.215 46.336h391.62c8.767 0 15.876 7.11 15.876 15.879v370.453c0 8.766-7.11 15.875-15.875 15.875H58.215c-8.77 0-15.88-7.11-15.88-15.875V62.215c0-8.77 7.11-15.88 15.88-15.88zm0 0" fill="url(#f)"/><path d="M58.215 46.336a15.844 15.844 0 0 0-15.88 15.879v238.148h423.376V62.215a15.843 15.843 0 0 0-15.875-15.88zm0 0" fill="url(#g)"/><path d="M1320.007 575.112c-265.93 0-720.005 231.932-720.005 520.005H159.995v159.995h1600.004v-159.995h-502.614c-35.223-172.926-52.052-313.597 62.622-520.005zm0 0" transform="rotate(.158) scale(.26461)" fill="url(#h)" stroke-width="11.339" stroke-linecap="round" stroke="#212121"/><path d="M58.215 46.336a15.844 15.844 0 0 0-15.88 15.879v2.644a15.843 15.843 0 0 1 15.88-15.875h391.62a15.843 15.843 0 0 1 15.876 15.875v-2.644a15.843 15.843 0 0 0-15.875-15.88zm0 0" fill="#fff" fill-opacity=".392"/><path d="M58.215 448.54a15.843 15.843 0 0 1-15.88-15.876v-2.648a15.844 15.844 0 0 0 15.88 15.879h391.62a15.843 15.843 0 0 0 15.876-15.88v2.65a15.843 15.843 0 0 1-15.875 15.874zm0 0" fill="#030303" fill-opacity=".235"/><path d="M58.215 44.84c-9.602 0-17.38 7.773-17.38 17.375v370.453c0 9.598 7.778 17.375 17.38 17.375h391.617c9.602 0 17.379-7.777 17.379-17.375V62.215c0-9.602-7.777-17.375-17.379-17.375zm0 3h391.617a14.31 14.31 0 0 1 14.379 14.375v370.453a14.313 14.313 0 0 1-14.379 14.375H58.215a14.31 14.31 0 0 1-14.375-14.375V62.215A14.308 14.308 0 0 1 58.215 47.84zm0 0" fill="#212121"/></svg>
